!!!OTL: 533. Unterlaenders Heimweh.
!!!COM: Volksmelodie
!!!ARE: Europa, Mitteleuropa, Deutschland, Schwaben
!!!SCT: B0533
!!!TXL: @@DE
!!!YEM: Copyright 1995, estate of Helmut Schaffrath.
**kern	**text
*ICvox	*
*Ivox	*
*clefG2	*
*M3/4	*
*k[b-e-]	*
*B-:	*
=1	=1
!LO:TX:a:t=Etwas bewegt. (Tanʒmel.)	!
{8dL	Drun-
8fJ	.
8b-L	-ten-
8dJ	.
4f	-im
=2	=2
4e-	Un-
4g	-ter-
4g}	-land,
=3	=3
{8fL	da
8aJ	.
8ccL	iſt's
8ee-J	.
8ddL	halt
8ccJ	.
=4	=4
2b-	fein.
4r}	.
=5	=5
{8dL	Drun-
8fJ	.
8b-L	-ten-
8dJ	.
4f	-im
=6	=6
4e-	Un-
4g	-ter-
4g}	-land,
=7	=7
{8fL	da
8aJ	.
8ccL	iſt's
8ee-J	.
8ddL	halt
8ccJ	.
=8	=8
2b-	fein.
4r}	.
=9	=9
{4b-	Schle-
4dd	-ben-
4ff	-im
=10	=10
4.ee-	O-
8dd	-ber-
4cc}	-land,
=11	=11
{4f	Trau-
8a/L	-ben-
8ccJ	.
4ee-	-im
=12	=12
4.dd	Un-
8cc	-ter-
4b-}	-land;
=13	=13
{8dL	drun-
8fJ	.
8b-L	-ten-
8dJ	.
4f	-im
=14	=14
4e-	Un-
4g	-ter-
4g}	-land
=15	=15
{8fL	möcht'
8aJ	.
8ccL	ich
8ee-J	.
8ddL	wohl
8ccJ	.
=16	=16
2b-	ſein!
4r}	.
=17	=17
{4b-	Schle-
4dd	-ben-
4ff	-im
=18	=18
4.ee-	O-
8dd	-ber-
4cc}	-land,
=19	=19
{4f	Trau-
8a/L	-ben-
8ccJ	.
4ee-	-im
=20	=20
4.dd	Un-
8cc	-ter-
4b-}	-land;
=21	=21
{8dL	drun-
8fJ	.
8b-L	-ten-
8dJ	.
4f	-im
=22	=22
4e-	Un-
4g	-ter-
4g}	-land
=23	=23
{8fL	möcht'
8aJ	.
8ccL	ich
8ee-J	.
8ddL	wohl
8ccJ	.
=24	=24
2b-	ſein!
4r}	.
==	==
!!!AGN: Wander -, Heimat - Lied
!!!GTL: Wanderlieder
!!!ONB: ESAC (Essen Associative Code) Database: BOEHME
!!!AMT: simple triple
!!!AIN: vox
!!!EED: Helmut Schaffrath
!!!EEV: 1.0
!!Schwäb. Volksmel. (1835) bei Silcher V. Nr. 3.
!!@@COMMENT:"Schwäb. Volkslied, gedichtet von Gottlieb Weigele 1835. [...]
!!Die Melodie gehört urſprünglich ʒum Text "Draußen im Schwabeland wachſt a ſchöns
!!Holʒ" rc. ſ. E. Meier, "Schwäbiſche Volkslieder" 1855."
!!@@END:
!!!URL-scan: https://archive.org/details/BoehmeVtLieder1895/page/n423/mode/2up
!!!ENC: Anna Maria Matuszewska
!!!EEV: 2024/11/07
*-	*-
